X:128
T:Byggna'n
R:sl\"angpolska
C:Byss-Calle, \"Alvkarleby, Uppland
A:Uppland
Z:id:hn-sp-128
M:3/4
L:1/16
K:F
F2A2 c2f2 a2c'2 | gagf efde c2f2 | dBdf eceg fcfa |
ageg f2d2 cBAG | F2A2 c2f2 a2c'2 | gagf efde c2f2 |
dBdf eceg fcfa | ageg f8 :||: a2af cAcf a2af |
g2ge cGce gcgc | a2af cAcf acac | g2ge cGce g2ge |
f2fd BFBd f2d2 | cdcB ABcd c2f2 | dBdf eceg fcfa |
ageg g2f2 f4 :||: FAcf f2A2 BABc | d2dc BABd G3B |
A2c2 f2a2 gagf | efge f2d2 cBAG | FAcf f2A2 BABc |
d2dc BABd G3B | A2c2 f2a2 gagf | efge f8 :|
c<afa c<afa c<afa | c<geg c<geg c<geg | c<afa c<afa c<afa |
c<geg c<geg c<geg | Bfdf Bfdf Bfdf | cdcB ABcd c2f2 |
dBdf eceg fcfa | ageg f8 :|
<end>
<start>
